X: 45
T: The Boot
R: hornpipe
M: 2/4
L: 1/8
Z: 2011 John Chambers <jc:trillian.mit.edu>
B: Charles & Samuel Thompson eds "Twenty Four Country Dances", London 1774, p.23 #1
K: A
% - - - - - - - - - - - - - - - - - - - - - - - - -
|:\
(a>e)(c>A) | Td2c>B | (a>e)(c>A) | T[B4E4] |\
a>ec>A | G>BE>d | c>Ae>c | [B4E4] :|
|:\
(B>E)(d>E) | c>ec>A | B>dc>g | a4 |\
f>de>c d>Bc>a | f>dc>B | A4 :|
% - - - - - - - - Dance description - - - - - - - -
%%begintext align
%% The first Man and Wo: sets to the 2d Man and all
%% three turn hands .|. the same to the 2d Wo: :|. the
%% first Cu: cross over and lead thro the 3d Cu: and
%% cast up and right Hands and left .|: :|:
%%endtext

%%sep 1 1 500
